X: 32
T: The Brown Thorn
M: 3/4
L: 1/8
B: "O'Neill's 32"
N: "Slow" "setting 2" "collected by J. O'Neill"
Z: "Transcribed by Norbert Paap, norbertp@bdu.uva.nl"
K:D
D-E | (F>E F)(ABc) | d3 c (BA/2F/2) | ~E4-D2 | {E}D2z2(AB/2c/2) |
d2 d>-e f-d | {f}e2 d>-c B-A | F>A B3 c | B>-A A2 (AB/2c/2) |
d2 d>-e f-d | {f}e2 d>-c B-A | FA Bd (c/2d/2e/2f/2 | d2z2 A,>-B, |
(D>E F>E) FA | B-c d>-c (BA/2F/2) | ~E4-D2 | ~D4 ||


